actions/24/labplot-xy-plot-two-axes-centered-origin.svg

<?xml version="1.0" encoding="UTF-8" standalone="no"?>
<svg
   width="24"
   height="24"
   viewBox="0 0 24 24"
   version="1.1"
   id="svg7"
   sodipodi:docname="labplot-xy-plot-two-axes-centered-origin.svg"
   inkscape:version="1.1.2 (0a00cf5339, 2022-02-04)"
   xmlns:inkscape="http://www.inkscape.org/namespaces/inkscape"
   xmlns:sodipodi="http://sodipodi.sourceforge.net/DTD/sodipodi-0.dtd"
   xmlns="http://www.w3.org/2000/svg"
   xmlns:svg="http://www.w3.org/2000/svg">
  <sodipodi:namedview
     id="namedview9"
     pagecolor="#000000"
     bordercolor="#666666"
     borderopacity="1.0"
     inkscape:pageshadow="2"
     inkscape:pageopacity="0"
     inkscape:pagecheckerboard="0"
     showgrid="false"
     inkscape:zoom="56.833333"
     inkscape:cx="11.991202"
     inkscape:cy="14.780059"
     inkscape:window-width="1482"
     inkscape:window-height="967"
     inkscape:window-x="0"
     inkscape:window-y="29"
     inkscape:window-maximized="1"
     inkscape:current-layer="svg7" />
  <defs
     id="defs3">
    <style
       id="current-color-scheme"
       type="text/css">
   .ColorScheme-Text { color:#eeeeec; } .ColorScheme-Highlight { color:#367bf0; } .ColorScheme-NeutralText { color:#ffcc44; } .ColorScheme-PositiveText { color:#3db47e; } .ColorScheme-NegativeText { color:#dd4747; }
  </style>
  </defs>
  <path
     style="fill:currentColor"
     class="ColorScheme-Text"
     d="M 13.720703,0 11.994141,2.9902344 V 5 H 8.9941406 L 8.2904683,5.7036723 v 0 L 7.9941406,5.681089 V 1 h -1 V 6.9941406 L 6.9882812,7 h 0.00586 L 5.9921875,8 H -0.00585938 V 9 H 4.6606524 v 0 l 0.00327,0.3269526 -0.669781,0.6710943 -1,0.9980471 V 15 h -2.99999998 v 1 H 3.9941406 V 11.410156 L 4.4042969,11 h 0.00195 l 2,-2 h 0.5878906 v 7 h 1 V 9 H 14.994141 V 8 H 7.9941406 V 7.4121094 L 9.40625,6 h 3.587891 V 3.2578125 L 14.296875,1 h 1.697266 V 0 Z"
     transform="translate(4,4)"
     id="path5"
     sodipodi:nodetypes="ccccccccccccccccccccccccccccccccccccccccccc" />
</svg>

<svg xmlns="http://www.w3.org/2000/svg" width="24" height="24" viewBox="0 0 24 24">
 <defs>
  <style id="current-color-scheme" type="text/css">
   .ColorScheme-Text { color:#eeeeec; } .ColorScheme-Highlight { color:#367bf0; } .ColorScheme-NeutralText { color:#ffcc44; } .ColorScheme-PositiveText { color:#3db47e; } .ColorScheme-NegativeText { color:#dd4747; }
  </style>
 </defs>
 <path style="fill:currentColor" class="ColorScheme-Text" d="M 13.720703 0 L 11.994141 2.9902344 L 11.994141 5 L 8.9941406 5 L 7.9941406 6 L 7.9941406 1 L 6.9941406 1 L 6.9941406 6.9941406 L 6.9882812 7 L 6.9941406 7 L 5.9921875 8 L -0.005859375 8 L -0.005859375 9 L 4.9902344 9 L 3.9941406 9.9980469 L 2.9941406 10.996094 L 2.9941406 15 L -0.005859375 15 L -0.005859375 16 L 3.9941406 16 L 3.9941406 11.410156 L 4.4042969 11 L 4.40625 11 L 6.40625 9 L 6.9941406 9 L 6.9941406 16 L 7.9941406 16 L 7.9941406 9 L 14.994141 9 L 14.994141 8 L 7.9941406 8 L 7.9941406 7.4121094 L 9.40625 6 L 12.994141 6 L 12.994141 3.2578125 L 14.296875 1 L 15.994141 1 L 15.994141 0 L 13.720703 0 z" transform="translate(4 4)"/>
</svg>
